assets/img/braze_icons/file-x-01.svg

<svg fill="none" height="24" viewBox="0 0 24 24" width="24" xmlns="http://www.w3.org/2000/svg"><g fill="#801ed7"><path d="m17.7071 16.2929c-.3905-.3905-1.0237-.3905-1.4142 0s-.3905 1.0237 0 1.4142l1.7929 1.7929-1.7929 1.7929c-.3905.3905-.3905 1.0237 0 1.4142s1.0237.3905 1.4142 0l1.7929-1.7929 1.7929 1.7929c.3905.3905 1.0237.3905 1.4142 0s.3905-1.0237 0-1.4142l-1.7929-1.7929 1.7929-1.7929c.3905-.3905.3905-1.0237 0-1.4142s-1.0237-.3905-1.4142 0l-1.7929 1.7929z"/><path d="m8.7587 1h6.4826c.805-.000012 1.4693-.000022 2.0105.04419.5621.04593 1.0788.14449 1.5642.39179.7526.38349 1.3645.99541 1.748 1.74806.2473.48533.3459 1.00204.3918 1.56414.0442.54119.0442 1.20554.0442 2.0105v6.84602c0 .1973 0 .2959-.0242.3708-.0254.0786-.048.1179-.1029.1795-.0525.0587-.1636.1237-.3858.2536-.2173.127-.4221.2837-.6084.4701l-.3787.3787-.3787-.3787c-1.1716-1.1716-3.071-1.1716-4.2426 0s-1.1716 3.071 0 4.2426l.3787.3787-.3787.3787c-.5575.5575-.8498 1.2799-.8767 2.0102-.0183.4977-.0274.7465-.0833.8495-.0615.1133-.102.1523-.2174.2096-.105.052-.2903.052-.6609.052h-4.28172c-.80496 0-1.46931 0-2.0105-.0442-.5621-.0459-1.07881-.1445-1.56414-.3918-.75265-.3835-1.36457-.9954-1.74806-1.748-.2473-.4854-.34586-1.0021-.39179-1.5642-.04421-.5412-.0442-1.2055-.04419-2.0105v-10.4826c-.00001-.80496-.00002-1.46933.04419-2.01052.04593-.5621.14449-1.07881.39179-1.56414.38349-.75265.99541-1.36457 1.74806-1.74806.48533-.2473 1.00204-.34586 1.56414-.39179.54119-.044212 1.20556-.044202 2.01052-.04419z"/></g></svg>

<svg width="24" height="24" viewBox="0 0 24 24" fill="none" xmlns="http://www.w3.org/2000/svg">
<path d="M17.7071 16.2929C17.3166 15.9024 16.6834 15.9024 16.2929 16.2929C15.9024 16.6834 15.9024 17.3166 16.2929 17.7071L18.0858 19.5L16.2929 21.2929C15.9024 21.6834 15.9024 22.3166 16.2929 22.7071C16.6834 23.0976 17.3166 23.0976 17.7071 22.7071L19.5 20.9142L21.2929 22.7071C21.6834 23.0976 22.3166 23.0976 22.7071 22.7071C23.0976 22.3166 23.0976 21.6834 22.7071 21.2929L20.9142 19.5L22.7071 17.7071C23.0976 17.3166 23.0976 16.6834 22.7071 16.2929C22.3166 15.9024 21.6834 15.9024 21.2929 16.2929L19.5 18.0858L17.7071 16.2929Z" fill="#801ED7"/>
<path d="M8.7587 1H15.2413C16.0463 0.999988 16.7106 0.999978 17.2518 1.04419C17.8139 1.09012 18.3306 1.18868 18.816 1.43598C19.5686 1.81947 20.1805 2.43139 20.564 3.18404C20.8113 3.66937 20.9099 4.18608 20.9558 4.74818C21 5.28937 21 5.95372 21 6.75868V13.6047C21 13.802 21 13.9006 20.9758 13.9755C20.9504 14.0541 20.9278 14.0934 20.8729 14.155C20.8204 14.2137 20.7093 14.2787 20.4871 14.4086C20.2698 14.5356 20.065 14.6923 19.8787 14.8787L19.5 15.2574L19.1213 14.8787C17.9497 13.7071 16.0503 13.7071 14.8787 14.8787C13.7071 16.0503 13.7071 17.9497 14.8787 19.1213L15.2574 19.5L14.8787 19.8787C14.3212 20.4362 14.0289 21.1586 14.002 21.8889C13.9837 22.3866 13.9746 22.6354 13.9187 22.7384C13.8572 22.8517 13.8167 22.8907 13.7013 22.948C13.5963 23 13.411 23 13.0404 23H8.75868C7.95372 23 7.28937 23 6.74818 22.9558C6.18608 22.9099 5.66937 22.8113 5.18404 22.564C4.43139 22.1805 3.81947 21.5686 3.43598 20.816C3.18868 20.3306 3.09012 19.8139 3.04419 19.2518C2.99998 18.7106 2.99999 18.0463 3 17.2413V6.7587C2.99999 5.95374 2.99998 5.28937 3.04419 4.74818C3.09012 4.18608 3.18868 3.66937 3.43598 3.18404C3.81947 2.43139 4.43139 1.81947 5.18404 1.43598C5.66937 1.18868 6.18608 1.09012 6.74818 1.04419C7.28937 0.999978 7.95374 0.999988 8.7587 1Z" fill="#801ED7"/>
</svg>
